!!!!SEGMENT: pl-kk--kk-i-382--024-003_anonim--nro-9-sanctus.krn
!!!cenid: 18xx:1502
!!!COM: Anonim
!!!COM-rismID: pe30004985
!!!CDT:
!!!CNT:
!!!OPR: Nro 9
!!!OTL: Sanctus
!!!OMV: 003
!!!PDT:
!!!AGN: Sacred
!!!SMS-siglum: PL-Kk
!!!SMS-shelfmark: Kk.I.382
!!!SMS-shelfwork: 009-003 M
!!!SMS-variant:
!!!SMS-altvar:
!!!NIFC-rismSourceID: 1001139027
!!!NIFC-rismChildID: 1001139153
!!!NIFC-islandoraID: pl-kk:6162
!!!URL-pdf-islandora: https://repozytorium.nifc.pl/islandora/object/pl-kk%3A6162/datastream/PDF/view
!!!URL-scan: https://polish.musicsources.pl/pl/lokalizacje/galeria/rekopisy/5994 @EN{Scan on Polish Music Sources Website} @PL{Skany w portalu Dziedzictwo Muzyki Polskiej w otwartym dostępie}
!!!ONB-nifc: UWAGA: obsada: S/T 1, T 2, A/B 1, B 2. Sancus, Osanna, Benedictus. Skan 0024-0025, 0096, 0171-0172, 0242-0243
!!!AIN: 1 alto 1 bass 2 tenor
!!!key:
**kern	**text	**kern	**text	**kern	**text	**kern	**text
*part4	*part4	*part3	*part3	*part2	*part2	*part1	*part1
*staff4	*staff4	*staff3	*staff3	*staff2	*staff2	*staff1	*staff1
*Ibass	*	*Itenor	*	*Ialto	*	*Itenor	*
*I"Basso II	*	*I"Tenore II	*	*I"Alto vel Basso I	*	*I"Soprano vel Tenore I	*
*I'B 2	*	*I'T 2	*	*I'A vel B 1	*	*I'S vel T 1	*
*group1	*	*group1	*	*group1	*	*group1	*
*clefF4	*	*clefC4	*	*clefC3	*	*clefC1	*
*k[b-]	*	*k[b-]	*	*k[b-]	*	*k[b-]	*
*F:	*	*F:	*	*F:	*	*F:	*
*M3/4	*	*M3/4	*	*M3/4	*	*M3/4	*
=1	=1	=1	=1	=1	=1	=1	=1
*2\right	*	*2\right	*	*2\right	*	*2\right	*
!LO:TX:t=P:problem=all\right&colon; global	!	!LO:TX:t=P:problem=all\right&colon; global	!	!LO:TX:t=P:problem=all\right&colon; global	!	!LO:TX:t=P:problem=all\right&colon; global	!
!LO:TX:b:t=Sanctus\nin F.	!	!LO:TX:b:t=Sanctus	!	!LO:TX:b:t=Sanctus	!	!LO:TX:b:t=Sanctus	!
4F\	San-	(8A\L	San-	(8f\L	San-	4cc\	San-
.	.	8G\	.	8e\	.	.	.
4FF/	-ctus	8A\	.	8f\	.	4cc\	-ctus
.	.	8B-\J)	.	8g\J)	.	.	.
4r	.	(8c\L	-ctus	(8a\L	-ctus	4r	.
.	.	8A\J)	.	8f\J)	.	.	.
=2	=2	=2	=2	=2	=2	=2	=2
4c\	San-	(8B-\L	San-	(8g\L	San-	4ee\	San-
.	.	8c\	.	8f\	.	.	.
4C/	-ctus	8d\	.	8g\	.	4cc\	-ctus
.	.	8e\J)	.	8a\J)	.	.	.
4r	.	(8f\L	-ctus	(8b-\L	-ctus	4r	.
.	.	8d\J)	.	8g\J)	.	.	.
=3	=3	=3	=3	=3	=3	=3	=3
(4F\	San-	(8c\L	San-	(8f\L	San-	(4a\	san-
.	.	8B-\	.	8e\	.	.	.
4A\)	.	8A\	.	8f\	.	4cc\)	.
.	.	8B-\J)	.	8g\J)	.	.	.
4F\	-ctus	(8c\L	-ctus	(8a\L	-ctus	4a\	-ctus
.	.	8A\J)	.	8f\J)	.	.	.
=4	=4	=4	=4	=4	=4	=4	=4
4c\	San-	4A\	San-	4f\	San-	4cc\	san-
4C/	-ctus	4G\	-ctus	4e\	-ctus	4cc\	-ctus
4r	.	4r	.	4r	.	4r	.
!	!	!LO:LB:g=original	!	!LO:LB:g=original	!	!	!
=5	=5	=5	=5	=5	=5	=5	=5
4D\	San-	(8d\L	San-	(8f\L	San-	4a\	san-
.	.	8c#X\	.	8e\	.	.	.
4D\	-ctus	8d\	.	8f\	.	4a\	-ctus
.	.	8e\J)	.	8g\J)	.	.	.
4r	.	(8f\L	-ctus	(8a\L	-ctus	4r	.
.	.	8d\J)	.	8f\J)	.	.	.
=6	=6	=6	=6	=6	=6	=6	=6
4A\	San-	(8c#X\L	San-	(8g\L	San-	4a\	San-
.	.	8Bn\	.	8f\	.	.	.
4AA/	-ctus	8c#\	.	8g\	.	4a\	-ctus
.	.	8d\J)	.	8a\J)	.	.	.
4r	.	(8e\L	-ctus	(8b-\L	-ctus	4r	.
.	.	8c#\J)	.	8g\J)	.	.	.
!LO:LB:g=original	!	!	!	!	!	!LO:LB:g=original	!
=7	=7	=7	=7	=7	=7	=7	=7
4D\	San-	(8d\L	San-	(8f\L	San-	[2.a\	San-
.	.	8c#X\	.	8e\	.	.	.
4F\	.	8d\	.	8f\	.	.	.
.	.	8f\J)	.	8g\J)	.	.	.
4D\	-ctus	(8e\L	-ctus	(8a\L	-ctus	.	.
.	.	8d\J)	.	8f\J)	.	.	.
=8	=8	=8	=8	=8	=8	=8	=8
4A\	San-	4d\	San-	4f\	San-	4a\]	.
4AA/	-ctus	4c#X\	-ctus	4e\	-ctus	4a\	-ctus
4r	.	4r	.	4r	.	4r	.
=9	=9	=9	=9	=9	=9	=9	=9
4.A\	Do-	4.e\	Do-	4.g\	Do-	4.cc#X\	Do-
8A\	-mi-	8e\	-mi-	8g\	-mi-	8cc#\	-mi-
4c#X\	-nus	4A\	-nus	4a\	-nus	4ee\	-nus
!	!	!LO:LB:g=original	!	!LO:LB:g=original	!	!	!
=10	=10	=10	=10	=10	=10	=10	=10
(4d\	De-	(4A\	De-	(4a\	De-	(4ff\	De-
4A\)	.	4c#X\)	.	4g\)	.	4ee\)	.
4D\	-us	4A\	-us	4f\	-us	4dd\	-us
=11	=11	=11	=11	=11	=11	=11	=11
(4G\	Sa-	(4B-X\	Sa-	(4g\	Sa-	(4ee\	sa-
4A\)	.	4A\)	.	4f\)	.	4dd\)	.
4AA/	-ba-	4A\	-ba-	4e\	-ba-	4cc#X\	-ba-
=12	=12	=12	=12	=12	=12	=12	=12
!LO:TX:b:t=V&colon;S&colon;	!	!	!	!	!	!	!
2.D\	-oth.	2A\	-oth.	2.f\	-oth.	2.dd\	-oth
.	.	4r	.	.	.	.	.
!LO:PB:g=original	!	!	!	!	!	!LO:LB:g=original	!
=13||	=13||	=13||	=13||	=13||	=13||	=13||	=13||
*M4/4	*	*M4/4	*	*M4/4	*	*M4/4	*
*met(c)	*	*met(c)	*	*met(c)	*	*met(c)	*
!LO:TX:t=P:problem=metrum C z kropką w środku	!	!LO:TX:t=P:problem=metrum C z kropką w środku	!	!	!	!	!
!LO:TX:b:t=Pleni	!	!LO:TX:t=P:problem=znak b-	!	!LO:TX:t=P:problem=metrum C z kropką w środku	!	!LO:TX:t=P:problem=metrum C z kropką w środku	!
2F\	Ple-	2c\	Ple-	2a\	Ple-	2a\	ple-
!LO:TX:t=P:problem=znak BB-	!	!	!	!	!	!	!
4E\	-ni	4B-\	-ni	4g\	-ni	4ccn\	-ni
4F\	sunt	4A\	sunt	4f\	sunt	4cc\	sunt
=14	=14	=14	=14	=14	=14	=14	=14
2C/	ce-	2B-\	ce-	2g\	Ce-	2ee\	ce-
4C/	-li	4A\	-li	4f\	-li	4cc\	-li
4C/	et	4G\	et	4e\	et	4cc\	et
=15	=15	=15	=15	=15	=15	=15	=15
2F\	ter-	(4A\	ter-	(4f\	ter-	1cc	ter-
.	.	(8G\L	.	8e\L	.	.	.
.	.	8A\J)	.	8f\J	.	.	.
4E\	.	4B-\	.	4g\	.	.	.
4F\	.	4A\)	.	4f\)	.	.	.
!	!	!LO:LB:g=original	!	!LO:LB:g=original	!	!	!
=16	=16	=16	=16	=16	=16	=16	=16
2C/	-ra	2G/	-ra	2e\	-ra	2.cc\	-ra
2r	.	2r	.	2r	.	.	.
.	.	.	.	.	.	4r	.
=17	=17	=17	=17	=17	=17	=17	=17
2C/	glo-	2.e\	glo-	2g\	glo-	2.b-\	glo-
4c\	-ri-	.	.	4g\	-ri-	.	.
4B-\	-a	8e\	-ri-	4g\	-a	8cc\	-ri-
.	.	8e\	-a	.	.	8cc\	-a
=18	=18	=18	=18	=18	=18	=18	=18
(4A\	tu-	2c\	tu-	(4f\	glo-	(4a\	glo-
4G\)	.	.	.	4g\)	.	4b-\)	.
(4F\	-a	2c\	-a	4a\	-ri-	4cc\	-ri-
4E\)	.	.	.	4b-\	-a	4g\	-a
!LO:LB:g=original	!	!	!	!	!	!	!
=19	=19	=19	=19	=19	=19	=19	=19
(4F\	glo-	(4c\	glo-	(4a\	glo-	(4a\	glo-
4G\)	.	4B-\	.	4g\)	.	4b-\)	.
4A\	-ri-	4A\	.	4f\	-ri-	4cc\	-ri-
4B-\	-a	4B-\	.	4g\	-a	4ee\	-a
=20	=20	=20	=20	=20	=20	=20	=20
(4c\	glo-	4A\	.	(4a\	glo-	4cc\	glo-
4B-\)	.	4B-\)	.	4g\)	.	4cc\	-ri-
4A\	-ri-	4c\	-ri-	4f\	-ri-	2cc\	-a
4B-\	-a	4B-\	-a	4g\	-a	.	.
=21	=21	=21	=21	=21	=21	=21	=21
2c\	tu-	2A\	tu-	(2f\	tu-	1cc	tu-
2C/	.	2G\	.	2e\)	.	.	.
=22	=22	=22	=22	=22	=22	=22	=22
!	!	!LO:TX:b:t=V&colon;S&colon; OSanna.	!	!	!	!	!
1F	-a.	1A	-a.	1f	-a.	1cc	-a.
!LO:LB:g=original	!	!LO:PB:g=original	!	!LO:LB:g=original	!	!LO:LB:g=original	!
=23||	=23||	=23||	=23||	=23||	=23||	=23||	=23||
*k[b-]	*	*k[b-]	*	*k[b-]	*	*k[b-]	*
*M4/4	*	*M4/4	*	*M4/4	*	*M4/4	*
*met(c)	*	*met(c)	*	*met(c)	*	*met(c)	*
!LO:TX:b:t=Osanna	!	!LO:TX:b:t=Osanna.	!	!LO:TX:b:t=Osanna.	!	!LO:TX:b:t=Osanna	!
!LO:TX:t=P:problem=metrum C z kropką w środku	!	!LO:TX:t=P:problem=metrum C z kropką w środku	!	!LO:TX:t=P:problem=metrum C z kropką w środku	!	!LO:TX:t=P:problem=metrum C z kropką w środku	!
(4F\	O-	2c\	O-	2a\	O-	2a\	O-
4A\)	.	.	.	.	.	.	.
(4c\	-san-	2B-\	-san-	2g\	-san-	2b-\	-san-
4C/)	.	.	.	.	.	.	.
=24	=24	=24	=24	=24	=24	=24	=24
2F\	-na	2A\	-na	2f\	-na	2cc\	-na
4r	.	4r	.	4r	.	4r	.
4F\	O-	4A\	o-	4f\	o-	4cc\	o-
=25	=25	=25	=25	=25	=25	=25	=25
(4E\	-san-	(4G\	-san-	(4e\	-sa-	1cc	-san-
4F\	.	4A\	.	4f\	.	.	.
8A\L	.	8c\L	.	8a\L	.	.	.
8G\	.	8B-\	.	8g\	.	.	.
8F\	.	8A\	.	8f\	.	.	.
8E\J)	.	8G\J)	.	8e\J)	.	.	.
=26	=26	=26	=26	=26	=26	=26	=26
2F\	-na	2A\	-na	2f\	-na	2cc\	-na
4r	.	4r	.	4r	.	2r	.
!	!	!	!	!LO:TX:b:t=V&colon;S&colon;	!	!	!
4F\	O-	4f\	o-	4a\	o-	.	.
!	!	!	!	!LO:LB:g=original	!	!	!
=27	=27	=27	=27	=27	=27	=27	=27
!	!	!	!	!	!	!LO:TX:a:t=1.	!
1C	-san-	(4e\	-san-	(4g\	-san-	1r	.
.	.	4f\	.	4a\	.	.	.
.	.	8a\L	.	8cc\L	.	.	.
.	.	8g\	.	8b-\	.	.	.
.	.	8f\	.	8a\	.	.	.
.	.	8e\J)	.	8g\J)	.	.	.
=28	=28	=28	=28	=28	=28	=28	=28
2F\	-na	2f\	-na	2a\	-na	2r	.
4r	.	4r	.	4r	.	4r	.
4F\	o-	4f\	o-	4a\	o-	4cc\	o-
!LO:LB:g=original	!	!LO:LB:g=original	!	!	!	!	!
=29	=29	=29	=29	=29	=29	=29	=29
4.C/	-san-	4.e\	-san-	4.g\	-san-	4.cc\	-san-
8C/	-na	8f\	-na	8a\	-na	8cc\	-na
4C/	in	4g\	in	4b-\	in	4ee\	in
4C/	ex-	4g\	ex-	4b-\	ex-	4ee\	ex-
!	!	!	!	!	!	!LO:LB:g=original	!
=30	=30	=30	=30	=30	=30	=30	=30
4F\	-cel-	4f\	-cel-	4a\	-cel-	4cc\	-cel-
4E\	-sis	4c\	-sis	4g\	-sis	4b-\	-sis
4F\	in	4c\	in	4f\	in	4a\	in
4B-\	ex-	4d\	ex-	4g\	ex-	4b-\	ex-
=31	=31	=31	=31	=31	=31	=31	=31
2c\	-cel-	1c	-cel-	(2f\	-cel-	(2a\	-cel-
2C/	.	.	.	2e\)	.	2g\)	.
=32	=32	=32	=32	=32	=32	=32	=32
2F\	-sis	2c\	-sis	2f\	-sis	2a\	-sis
4r	.	4r	.	4r	.	4r	.
4F\	o-	4f\	o-	4a\	o-	4cc\	o-
!	!	!	!	!LO:LB:g=original	!	!	!
=33	=33	=33	=33	=33	=33	=33	=33
4.C/	-san-	4.e\	-san-	4.g\	-san-	4.cc\	-san-
8C/	-na	8f\	-na	8a\	-na	8cc\	-na
4C/	in	4g\	in	4b-\	in	4ee\	in
4C/	ex-	4g\	ex-	4b-\	ex-	4ee\	ex-
!LO:LB:g=original	!	!LO:LB:g=original	!	!	!	!	!
=34	=34	=34	=34	=34	=34	=34	=34
4F\	-cel-	4f\	-cel-	4a\	-cel-	4cc\	-cel-
4E\	-sis	4c\	-sis	4g\	-sis	4b-\	-sis
4F\	in	4c\	in	4f\	in	4a\	in
4BB-/	ex-	4d\	ex-	4g\	ex-	4b-\	ex-
=35	=35	=35	=35	=35	=35	=35	=35
1C	-cel-	1c	-cel-	(2f\	-cel-	(2a\	-cel-
.	.	.	.	2e\)	.	2g\)	.
=36	=36	=36	=36	=36	=36	=36	=36
1F	-sis.	1c	-sis	1f	-sis.	1a	-sis
!LO:LB:g=original	!	!LO:LB:g=original	!	!LO:LB:g=original	!	!LO:LB:g=original	!
=37||	=37||	=37||	=37||	=37||	=37||	=37||	=37||
*k[b-e-]	*	*k[b-e-]	*	*k[b-e-]	*	*k[b-e-]	*
*M4/4	*	*M4/4	*	*M4/4	*	*M4/4	*
*met(c)	*	*met(c)	*	*met(c)	*	*met(c)	*
!LO:TX:b:t=Benedictus.	!	!LO:TX:b:t=Benedictus	!	!LO:TX:b:t=Benedictus	!	!LO:TX:b:t=Benedictus	!
!LO:TX:t=P:problem=metrum C z kropką w środku	!	!LO:TX:t=P:problem=metrum C z kropką w środku	!	!LO:TX:t=P:problem=metrum C z kropką w środku	!	!LO:TX:t=P:problem=metrum C z kropką w środku	!
(4BB-/	Be-	4d\	Be-	(4f\	Be-	4dd\	Be-
4D/)	.	(8B-\L	-ne-	8d\L	.	(8b-\L	-ne-
.	.	8c\J)	.	8e-\J)	.	8cc\J)	.
(4E-\	-ne-	(8d\L	-dic-	(8f\L	-ne-	(8dd\L	-di-
.	.	8c\J)	.	8e-\	.	8cc\J)	.
4F\)	.	8e-\	-tus	8c\	.	8ee-\	-ctus
.	.	8c\	qui	8A\J)	.	8cc\	qui
=38	=38	=38	=38	=38	=38	=38	=38
(8BB-/L	-di-	(4.d\	ve-	(4.B-/	-di-	(4.dd\	ve-
8C/	.	.	.	.	.	.	.
8D/	.	.	.	.	.	.	.
8E-/J)	.	16c\LL	.	16c/LL	.	16cc\LL	.
.	.	16B-\JJ)	.	16d/JJ)	.	16b-\JJ)	.
4F\	-ctus	4A\	-nit	4c/	-ctus	4a\	-nit
4A\	qui	4c\	in	4e-\	qui	4cc\	in
=39	=39	=39	=39	=39	=39	=39	=39
(4B-\	ve-	(8B-\L	no-	(8d\L	ve-	(8b-\L	no-
.	.	8d\	.	8f\	.	8dd\J)	.
4E-\	.	8e-\	-mi-	8g\	.	8ee-\	-mi-
.	.	8c\J	-ne	8e-\J	.	8cc\	-ne
2F\)	.	4B-\	Do-	4d\	.	4b-\	Do-
.	.	4A\)	-mi-	4c\)	.	4a\	-mi-
!	!	!LO:LB:g=original	!	!	!	!LO:LB:g=original	!
=40	=40	=40	=40	=40	=40	=40	=40
2BB-/	-nit	2B-\	-ni	2d\	-nit	2b-\	-ni
4r	.	4r	.	4r	.	4r	.
4BB-/	qui	(8d\L	qui	(8f\L	qui	(8dd\L	qui
.	.	8B-\J)	.	8d\J)	.	8b-\J)	.
!LO:LB:g=original	!	!	!	!LO:LB:g=original	!	!	!
=41	=41	=41	=41	=41	=41	=41	=41
(8BB-/L	ve-	2B-\	ve-	2d\	ve-	2b-\	ve-
8C/	.	.	.	.	.	.	.
8D/	.	.	.	.	.	.	.
8E-/J)	.	.	.	.	.	.	.
4F\	-nit	4A\	-nit	4c\	-nit	4a\	-nit
4F\	qui	(8e-\L	qui	(8g\L	qui	(8ee-\L	qui
.	.	8c\J)	.	8e-\J)	.	8cc\J)	.
=42	=42	=42	=42	=42	=42	=42	=42
(8A\L	ve-	2c\	ve-	2e-\	ve-	2cc\	ve-
8F\	.	.	.	.	.	.	.
8G\	.	.	.	.	.	.	.
8A\J)	.	.	.	.	.	.	.
4B-\	-nit	4B-\	-nit	4d\	-nit	4b-\	-nit
4B-\	in	4B-\	in	4d\	in	4b-\	in
=43	=43	=43	=43	=43	=43	=43	=43
(8B-\L	no-	(8B-\L	no-	(8d\L	no-	(8b-\L	no-
8A\J)	.	8c\J)	.	8e-\J)	.	8cc\J)	.
8A\	-mi-	8c\	-mi-	8e-\	-mi-	8cc\	-mi-
8B-\	-ne	8d\	-ne	8f\	-ne	8dd\	-ne
4E-\	Do-	(8d\L	Do-	(8f\L	Do-	(8dd\L	Do-
.	.	8c\J)	.	8e-\J)	.	8cc\J)	.
4En\	-mi-	(8c\L	-mi-	(8e-\L	-mi-	(8cc\L	-mi-
.	.	8B-\J)	.	8d\J)	.	8b-\J)	.
!	!	!LO:LB:g=original	!	!	!	!LO:LB:g=original	!
=44	=44	=44	=44	=44	=44	=44	=44
2F\	-ni	2A\	-ni	2c/	-ni	2a\	-ni
4r	.	4r	.	4r	.	4r	.
4F\	qui	(8A\L	qui	(8c\L	qui	(8a\L	qui
.	.	8B-\J)	.	8d\J)	.	8b-\J)	.
!LO:LB:g=original	!	!	!	!LO:LB:g=original	!	!	!
=45	=45	=45	=45	=45	=45	=45	=45
2F\	ve-	4c\	ve-	(4e-\	ve-	4cc\	ve-
.	.	4B-\	.	4d\	.	4b-\	.
4A\	-nit	8c\L	.	8e-\L	.	8cc\L	.
.	.	8e-\	.	8g\	.	8ee-\	.
4F\	qui	8d\	.	8f\	.	8dd\	.
.	.	8c\J	.	8e-\J)	.	8cc\J	.
=46	=46	=46	=46	=46	=46	=46	=46
(4B-\	ve-	4.B-\	.	(4.d\	.	4.b-\	.
4F\)	.	.	.	.	.	.	.
.	.	8c\	.	8e-\)	.	8cc\	.
4BB-/	-nit	4d\	-nit	4f\	-nit	4dd\	-nit
4G\	qui	(8Bn\L	qui	(8d\L	qui	(8bn\L	qui
.	.	8c\J)	.	8en\J)	.	8cc\J)	.
=47	=47	=47	=47	=47	=47	=47	=47
2G\	ve-	4d\	ve-	(4f\	ve-	4dd\	ve-
.	.	4c\	.	4en\	.	4cc\	.
4Bn\	-nit	8d\L	.	8f\L	.	8dd\L	.
.	.	8f\	.	8a\	.	8ff\	.
4G\	qui	8e-\	.	8g\	.	8een\	.
.	.	8d\J	.	8f\J	.	8dd\J	.
!	!	!	!	!	!	!LO:LB:g=original	!
=48	=48	=48	=48	=48	=48	=48	=48
(4c\	ve-	4.c\	.	4.en\	.	4.cc\	.
4G\)	.	.	.	.	.	.	.
.	.	8d\	.	8f\)	.	8dd\	.
4C/	-nit	4en\	-nit	4g\	-nit	4een\	-nit
4C/	in	4e\	in	4g\	in	4ee\	in
!	!	!LO:LB:g=original	!	!LO:LB:g=original	!	!	!
=49	=49	=49	=49	=49	=49	=49	=49
4F\	no-	4c\	no-	4a\	no-	4cc\	no-
8BB-/	-mi-	8d\	-mi-	8b-\	-mi-	8dd\	-mi-
8D/	-ne	8B-\	-ne	8g\	-ne	8b-X\	-ne
4C/	Do-	4A\	Do-	4f\	Do-	4a\	Do-
4C/	-mi-	(8B-\L	-mi-	(8g\L	-mi-	(8b-\L	-mi-
.	.	8G\J)	.	8en\J)	.	8g\J)	.
!LO:LB:g=original	!	!	!	!	!	!	!
=50	=50	=50	=50	=50	=50	=50	=50
2F\	-ni	2A\	-ni	2f\	-ni	2a\	-ni,
!	!	!	!	!	!	!LO:TX:b:t=V&colon;S&colon;	!
2r	.	2r	.	2r	.	2r	.
!	!	!	!	!	!	!LO:PB:g=original	!
=51	=51	=51	=51	=51	=51	=51	=51
(4BB-/	Be-	4d\	Be-	4f\	Be-	4dd\	be-
4D/)	.	(8B-\L	-ne-	(8d\L	-ne-	(8b-\L	-ne-
.	.	8c\J)	.	8e-X\J)	.	8cc\J)	.
(4E-\	-ne-	(8d\L	-di-	(8f\L	-dic-	(8dd\L	-di-
.	.	8c\J)	.	8e-\J)	.	8cc\J)	.
4F\)	.	8A\	-ctus	8c\	-tus	8a\	-ctus
.	.	8c\	qui	8e-\	qui	8cc\	qui
=52	=52	=52	=52	=52	=52	=52	=52
(4.D/	-di-	(4.B-\	ve-	(4.d\	ve-	(4.b-\	ve-
8C/)	.	8c\)	.	8e-\)	.	8cc\)	.
4BB-/	-ctus	4d\	-nit	4f\	-nit	4dd\	-nit
4BB-/	qui	8r	.	8r	.	8r	.
.	.	8d\	in	8f\	in	8dd\	in
!	!	!LO:LB:g=original	!	!LO:LB:g=original	!	!	!
=53	=53	=53	=53	=53	=53	=53	=53
2BB-/	ve-	(8d\L	no-	(8f\L	no-	(8dd\L	no-
.	.	8c\J)	.	8e-\J)	.	8cc\J)	.
.	.	8c\	-mi-	8e-\	-mi-	8cc\	-mi-
.	.	8B-\	-ne	8d\	-ne	8b-\	-ne
4E-\	-nit	(8B-\L	Do-	(8d\L	Do-	(8b-\L	Do-
.	.	8e-\J)	.	8c\J)	.	8ee-\J)	.
4En\	qui	(8e-\L	-mi-	(8c\L	-mi-	(8ee-\L	-mi-
.	.	8d\J)	.	8B-\J)	.	8dd\J)	.
=54	=54	=54	=54	=54	=54	=54	=54
2F\	ve-	2c\	-ni	2A/	-ni	2cc\	-ni
!	!	!	!	!	!	!LO:LB:g=original	!
4F\	-nit	(4A\	in	(4c\	in	(4a\	in
4A\	in	4c\)	.	4e-\)	.	4cc\)	.
=55	=55	=55	=55	=55	=55	=55	=55
4B-\	no-	(8B-\L	no-	(8d\L	no-	(8b-\L	no-
.	.	8d\J)	.	8f\J)	.	8dd\J)	.
8E-\	-mi-	8e-\	-mi-	8g\	-mi-	8ee-\	-mi-
8E-\	-ne	8c\	-ne	8e-\	-ne	8cc\	-ne
!LO:LB:g=original	!	!	!	!	!	!	!
4F\	Do-	4B-\	Do-	4d\	Do-	4b-\	Do-
4FF/	-mi-	4A\	-mi-	4c\	-mi-	4a\	-mi-
=56	=56	=56	=56	=56	=56	=56	=56
2BB-/	-ni	2B-\	-ni	2d\	-ni	2b-\	-ni
!	!	!LO:LB:g=original	!	!LO:LB:g=original	!	!	!
(4F\	in	(4A\	in	(4c\	in	(4a\	in
4A\)	.	8B-\L	.	4e-\)	.	8b-\L	.
.	.	8c\J)	.	.	.	8cc\J)	.
=57	=57	=57	=57	=57	=57	=57	=57
!	!	!LO:TX:a:t=P:problem=klamra łukowa	!	!LO:TX:a:t=P:problem=klamra łukowa	!	!LO:TX:a:t=P:problem=klamra łukowa	!
4B-\	no-	12B-\L	no-	12d\L	no-	12b-\L	no-
.	.	12c\	.	12e-\	.	12cc\	.
.	.	12d\J	.	12f\J	.	12dd\J	.
!	!	!LO:TX:a:t=P:problem=klamra łukowa	!	!LO:TX:a:t=P:problem=klamra łukowa	!	!LO:TX:a:t=P:problem=klamra łukowa	!
8E-\	-mi-	12e-\L	-mi-	12g\L	-mi-	12ee-\L	-mi-
.	.	12d\J	.	12f\J	.	12dd\J	.
8E-\	-ne	.	.	.	.	.	.
.	.	12c\	-ne	12e-\	-ne	12cc\	-ne
4F\	Do-	4B-\	Do-	4d\	Do-	4b-\	Do-
4FF/	-mi-	4A\	-mi-	4c\	-mi-	4a\	-mi-
=58	=58	=58	=58	=58	=58	=58	=58
!LO:TX:b:t=Osanna Da Capo.	!	!LO:TX:b:t=Osanna Da Capo.	!	!LO:TX:b:t=Osanna Da Capo.	!	!	!
1BB-	-ni.	1B-	-ni.	1d	-ni.	1b-	-ni,
!LO:LB:g=original	!	!LO:LB:g=original	!	!LO:LB:g=original	!	!LO:LB:g=original	!
=59||	=59||	=59||	=59||	=59||	=59||	=59||	=59||
*k[b-]	*	*k[b-]	*	*k[b-]	*	*k[b-]	*
*M4/4	*	*M4/4	*	*M4/4	*	*M4/4	*
*met(c)	*	*met(c)	*	*met(c)	*	*met(c)	*
!LO:TX:t=P:problem=t. 59-72 zapisane jak Da Capo	!	!LO:TX:t=P:problem=t. 59-72 zapisane jak Da Capo	!	!LO:TX:t=P:problem=t. 59-72 zapisane jak Da Capo	!	!LO:TX:t=P:problem=metrum C z kropką w środku	!
!LO:TX:b:t=Osanna	!	!LO:TX:b:t=Osanna.	!	!LO:TX:b:t=Osanna.	!	!LO:TX:b:t=Osanna	!
(4F\yy	O-	2c\yy	O-	2a\yy	O-	2a\	O-
4A\)yy	.	.	.	.	.	.	.
(4c\yy	-san-	2B-\yy	-san-	2g\yy	-san-	2b-\	-san-
4C/)yy	.	.	.	.	.	.	.
=60	=60	=60	=60	=60	=60	=60	=60
2F\yy	-na	2A\yy	-na	2f\yy	-na	2cc\	-na
4ryy	.	4ryy	.	4ryy	.	4r	.
4F\yy	O-	4A\yy	o-	4f\yy	o-	4cc\	o-
=61	=61	=61	=61	=61	=61	=61	=61
(4E\yy	-san-	(4G\yy	-san-	(4e\yy	-sa-	1cc	-san-
4F\yy	.	4A\yy	.	4f\yy	.	.	.
8A\Lyy	.	8c\Lyy	.	8a\Lyy	.	.	.
8G\yy	.	8B-\yy	.	8g\yy	.	.	.
8F\yy	.	8A\yy	.	8f\yy	.	.	.
8E\J)yy	.	8G\J)yy	.	8e\J)yy	.	.	.
=62	=62	=62	=62	=62	=62	=62	=62
2F\yy	-na	2A\yy	-na	2f\yy	-na	2cc\	-na
4ryy	.	4ryy	.	4ryy	.	2r	.
!	!	!	!	!LO:TX:b:t=V&colon;S&colon;	!	!	!
4F\yy	O-	4f\yy	o-	4a\yy	o-	.	.
!	!	!	!	!LO:PB:g=original	!	!	!
=63	=63	=63	=63	=63	=63	=63	=63
!	!	!	!	!	!	!LO:TX:b:t=1.	!
1Cyy	-san-	(4e\yy	-san-	(4g\yy	-san-	1r	.
.	.	4f\yy	.	4a\yy	.	.	.
.	.	8a\Lyy	.	8cc\Lyy	.	.	.
.	.	8g\yy	.	8b-\yy	.	.	.
.	.	8f\yy	.	8a\yy	.	.	.
.	.	8e\J)yy	.	8g\J)yy	.	.	.
=64	=64	=64	=64	=64	=64	=64	=64
2F\yy	-na	2f\yy	-na	2a\yy	-na	2r	.
4ryy	.	4ryy	.	4ryy	.	4r	.
4F\yy	o-	4f\yy	o-	4a\yy	o-	4cc\	o-
!LO:LB:g=original	!	!LO:LB:g=original	!	!	!	!	!
=65	=65	=65	=65	=65	=65	=65	=65
4.C/yy	-san-	4.e\yy	-san-	4.g\yy	-san-	4.cc\	-san-
8C/yy	-na	8f\yy	-na	8a\yy	-na	8cc\	-na
4C/yy	in	4g\yy	in	4b-\yy	in	4ee\	in
4C/yy	ex-	4g\yy	ex-	4b-\yy	ex-	4ee\	ex-
=66	=66	=66	=66	=66	=66	=66	=66
4F\yy	-cel-	4f\yy	-cel-	4a\yy	-cel-	4cc\	-cel-
4E\yy	-sis	4c\yy	-sis	4g\yy	-sis	4b-\	-sis
!	!	!	!	!	!	!LO:LB:g=original	!
4F\yy	in	4c\yy	in	4f\yy	in	4a\	in
4B-\yy	ex-	4d\yy	ex-	4g\yy	ex-	4b-\	ex-
=67	=67	=67	=67	=67	=67	=67	=67
2c\yy	-cel-	1cyy	-cel-	(2f\yy	-cel-	(2a\	-cel-
2C/yy	.	.	.	2e\)yy	.	2g\)	.
=68	=68	=68	=68	=68	=68	=68	=68
2F\yy	-sis	2c\yy	-sis	2f\yy	-sis	2a\	-sis
4ryy	.	4ryy	.	4ryy	.	4r	.
4F\yy	o-	4f\yy	o-	4a\yy	o-	4cc\	o-
!	!	!	!	!LO:LB:g=original	!	!	!
=69	=69	=69	=69	=69	=69	=69	=69
4.C/yy	-san-	4.e\yy	-san-	4.g\yy	-san-	4.cc\	-san-
8C/yy	-na	8f\yy	-na	8a\yy	-na	8cc\	-na
4C/yy	in	4g\yy	in	4b-\yy	in	4ee\	in
4C/yy	ex-	4g\yy	ex-	4b-\yy	ex-	4ee\	ex-
!LO:LB:g=original	!	!LO:LB:g=original	!	!	!	!	!
=70	=70	=70	=70	=70	=70	=70	=70
4F\yy	-cel-	4f\yy	-cel-	4a\yy	-cel-	4cc\	-cel-
4E\yy	-sis	4c\yy	-sis	4g\yy	-sis	4b-\	-sis
4F\yy	in	4c\yy	in	4f\yy	in	4a\	in
4BB-/yy	ex-	4d\yy	ex-	4g\yy	ex-	4b-\	ex-
=71	=71	=71	=71	=71	=71	=71	=71
1Cyy	-cel-	1cyy	-cel-	(2f\yy	-cel-	(2a\	-cel-
.	.	.	.	2e\)yy	.	2g\)	.
=72	=72	=72	=72	=72	=72	=72	=72
1Fyy	-sis.	1cyy	-sis	1fyy	-sis.	1a	-sis.
==	==	==	==	==	==	==	==
*-	*-	*-	*-	*-	*-	*-	*-
!!!system-decoration: [(g1)]
!!!RDF**kern: >= above
!!!RDF**kern: <= below
!!!ENC: Anna Matuszewska
!!!END: 2021-02-04
!!!ENC: Marcin Jachim
!!!END: 2021-01-28
!!!YEC: Copyright 2022 Narodowy Instytut Fryderyka Chopina (https://polishscores.org)
!!!YEM: License CC-BY-4.0 (https://creativecommons.org/licenses/by/4.0)
